tn/google-play-store-outline.svg

<svg viewBox="0 0 15 15" fill="none" xmlns="http://www.w3.org/2000/svg" height="1em" width="1em">
  <path d="M1.5 0.5L1.75194 0.0681106C1.59729 -0.0220988 1.40622 -0.0227402 1.25097 0.0664289C1.09572 0.155598 1 0.320967 1 0.5H1.5ZM1.5 14.5H1C1 14.679 1.09572 14.8444 1.25097 14.9336C1.40622 15.0227 1.59729 15.0221 1.75194 14.9319L1.5 14.5ZM13.5 7.5L13.7519 7.93189C13.9055 7.84228 14 7.67783 14 7.5C14 7.32217 13.9055 7.15772 13.7519 7.06811L13.5 7.5ZM1 0.5V14.5H2V0.5H1ZM1.75194 14.9319L13.7519 7.93189L13.2481 7.06811L1.24806 14.0681L1.75194 14.9319ZM13.7519 7.06811L1.75194 0.0681106L1.24806 0.931889L13.2481 7.93189L13.7519 7.06811ZM1.82925 12.8763L9.82925 5.87629L9.17075 5.12371L1.17075 12.1237L1.82925 12.8763ZM1.17075 2.87629L9.17075 9.87629L9.82925 9.12371L1.82925 2.12371L1.17075 2.87629Z" fill="black"/>
</svg>

<svg viewBox="0 0 15 15" fill="none" xmlns="http://www.w3.org/2000/svg" height="1em" width="1em">
  <path d="m1.5.5.252-.432A.5.5 0 0 0 1 .5h.5Zm0 14H1a.5.5 0 0 0 .752.432L1.5 14.5Zm12-7 .252.432a.5.5 0 0 0 0-.864L13.5 7.5ZM1 .5v14h1V.5H1Zm.752 14.432 12-7-.504-.864-12 7 .504.864Zm12-7.864-12-7-.504.864 12 7 .504-.864ZM1.829 12.876l8-7-.658-.752-8 7 .658.752Zm-.658-10 8 7 .658-.752-8-7-.658.752Z" fill="#000"/>
</svg>
